X: 080968
T: Humors of Kilclogher
S: "Music from Ireland 3" (Bulmer & Sharpley)
Z: B.Black
R: jig 
M: 6/8
L: 1/8
K: Ador
B|AGE G2E|c2E EGE|DED D2E|GED DEG|
AGE G2E|c2E EFG|A2A BAG|A3 A2 :|
B|c2B c2d|eAA A2c|BGG GAB|dBG GAB|
c2B c2d|eAA ABc|BAG GAB|A3 A2 :|
